X: 4293
T: DEVY HORNPIPE
R: Hornpipe.
%R: hornpipe
B: James Kerr "Merry Melodies" v.4 p.31 #293
Z: 2016 John Chambers <jc:trillian.mit.edu>
M: C|
L: 1/8
K: G
(dc) |\
BGBd gdcB | Aaaf gdcB |\
[1 BdBG AcAF | AGFE DFdc :|\
[2 BdBG AcAF | G2G2G2 |:\
(Bc) |\
dcBA GBdg |
e2c2 c2(cd) |\
edcB Aaag | f2d2 d2(ef) |\
gage fgaf | efge dcBA |\
BdBG AcAF | G2G2G2 :|

%%sep 1 1 500
%%sep 1 1 500

